img/svg/products-decoration-mob-1.svg

<svg width="280" height="376" viewBox="0 0 280 376" fill="none" xmlns="http://www.w3.org/2000/svg">
<g opacity="0.1">
<g clip-path="url(#clip0)">
<path d="M276.274 574.24L273.09 572.72L289.464 539.732L341.772 513.584L368.001 461.138L420.308 434.839L446.386 382.392L479.286 365.974L480.802 369.166L448.963 385.128L422.885 437.575L370.578 463.722L344.501 516.169L292.194 542.316L276.274 574.24Z" fill="#B69D6D"/>
<path d="M254.29 574.24L251.106 572.72L274.758 524.986L327.065 498.839L353.294 446.392L405.601 420.093L431.679 367.646L479.286 343.931L480.802 347.124L434.257 370.383L408.179 422.829L355.872 448.976L329.794 501.423L277.487 527.57L254.29 574.24Z" fill="#B69D6D"/>
<path d="M217.296 575L215.628 571.807L233.973 562.686L260.051 510.24L312.358 484.092L338.587 431.646L390.895 405.347L416.972 352.9L469.279 326.753L478.376 308.359L481.56 310.031L471.857 329.337L419.701 355.636L393.472 408.083L341.165 434.23L315.087 486.677L262.78 512.976L236.551 565.271L217.296 575Z" fill="#B69D6D"/>
<path d="M173.176 575L171.508 571.808L219.267 547.941L245.345 495.494L297.652 469.347L323.881 416.9L376.188 390.601L402.266 338.155L454.573 312.007L478.376 264.121L481.56 265.794L457.15 314.592L404.995 340.891L378.766 393.337L326.459 419.485L300.381 471.931L248.074 498.231L221.844 550.525L173.176 575Z" fill="#B69D6D"/>
<path d="M148.918 574.24L145.734 572.72L152.253 559.342L204.56 533.195L230.638 480.748L282.945 454.601L309.175 402.155L361.482 375.855L387.559 323.409L439.866 297.261L465.944 244.815L479.286 238.278L480.802 241.47L468.673 247.551L442.444 299.846L390.288 326.145L364.059 378.592L311.752 404.739L285.674 457.185L233.367 483.485L207.138 535.779L154.982 562.079L148.918 574.24Z" fill="#B69D6D"/>
<path d="M126.782 574.24L123.598 572.72L137.546 544.596L189.854 518.449L215.931 466.002L268.238 439.855L294.468 387.409L346.775 361.109L372.852 308.663L425.16 282.515L451.237 230.069L479.286 216.083L480.802 219.276L453.966 232.805L427.737 285.1L375.582 311.399L349.352 363.846L297.045 389.993L270.967 442.439L218.66 468.739L192.431 521.033L140.276 547.333L126.782 574.24Z" fill="#B69D6D"/>
<path d="M104.798 574.24L101.614 572.72L122.84 529.85L175.147 503.703L201.225 451.257L253.532 425.109L279.761 372.663L332.068 346.363L358.146 293.917L410.453 267.77L436.531 215.323L479.286 194.04L480.802 197.233L439.26 218.059L413.03 270.506L360.875 296.653L334.646 349.1L282.339 375.247L256.261 427.694L203.954 453.993L177.876 506.287L125.569 532.587L104.798 574.24Z" fill="#B69D6D"/>
<path d="M75.0813 575L73.5652 571.808L82.0556 567.551L108.133 515.105L160.44 488.957L186.518 436.511L238.825 410.364L265.055 357.917L317.362 331.618L343.439 279.171L395.746 253.024L421.824 200.577L474.131 174.43L478.376 165.917L481.56 167.437L476.86 177.014L424.553 203.314L398.324 255.76L346.168 281.907L319.939 334.354L267.632 360.501L241.554 412.948L189.247 439.247L163.169 491.542L110.862 517.841L84.6331 570.288L75.0813 575Z" fill="#B69D6D"/>
<path d="M37.1775 571.96L35.5098 568.767L67.3489 552.805L93.4266 500.359L145.734 474.211L171.811 421.765L224.118 395.618L250.348 343.171L302.655 316.872L328.733 264.425L381.04 238.278L407.117 185.831L459.424 159.684L475.344 127.76L478.528 129.432L462.154 162.268L409.846 188.568L383.617 241.014L331.462 267.162L305.232 319.608L252.925 345.755L226.848 398.202L174.54 424.501L148.463 476.796L96.1556 503.095L69.9263 555.542L37.1775 571.96Z" fill="#B69D6D"/>
<path d="M37.1775 549.765L35.5098 546.725L52.6422 538.059L78.72 485.613L131.027 459.466L157.105 407.019L209.412 380.872L235.641 328.425L287.948 302.126L314.026 249.679L366.333 223.532L392.411 171.086L444.718 144.938L453.36 127.76L456.392 129.432L447.447 147.523L395.14 173.822L368.91 226.268L316.755 252.416L290.526 304.862L238.219 331.01L212.141 383.456L159.834 409.755L133.756 462.05L81.449 488.349L55.2197 540.796L37.1775 549.765Z" fill="#B69D6D"/>
<path d="M37.1775 527.722L35.5098 524.53L37.9356 523.314L64.0133 470.867L116.32 444.72L142.398 392.273L194.705 366.126L220.935 313.679L273.242 287.38L299.319 234.934L351.626 208.786L377.704 156.34L430.011 130.192L431.224 127.76L434.408 129.432L432.74 132.777L380.433 159.076L354.204 211.523L302.048 237.67L275.819 290.116L223.512 316.264L197.434 368.71L145.127 395.01L119.049 447.304L66.7424 473.603L40.5131 526.05L37.1775 527.722Z" fill="#B69D6D"/>
<path d="M37.9356 486.981L34.7517 485.461L49.3067 456.121L101.614 429.974L127.843 377.527L179.999 351.38L206.228 298.934L258.535 272.634L284.613 220.34L336.92 194.04L362.998 141.594L392.259 127L393.775 130.192L365.727 144.33L339.497 196.777L287.342 222.924L261.112 275.371L208.805 301.518L182.728 353.964L130.421 380.264L104.343 432.558L52.0358 458.858L37.9356 486.981Z" fill="#B69D6D"/>
<path d="M37.1775 444.112L35.5098 440.919L86.9072 415.228L113.136 362.781L165.292 336.634L191.521 284.188L243.828 257.888L269.906 205.594L322.213 179.295L347.836 127.76L351.02 129.432L324.791 182.031L272.635 208.178L246.406 260.625L194.099 286.772L168.021 339.219L115.714 365.518L89.6362 417.812L37.1775 444.112Z" fill="#B69D6D"/>
<path d="M37.1775 422.069L35.5098 418.876L72.2005 400.482L98.4299 348.036L150.585 321.888L176.815 269.442L229.122 243.143L255.199 190.848L307.507 164.549L325.852 127.76L329.036 129.432L310.084 167.285L257.928 193.432L231.699 245.879L179.392 272.026L153.314 324.473L101.007 350.772L74.9296 403.066L37.1775 422.069Z" fill="#B69D6D"/>
<path d="M37.1775 399.874L35.5098 396.682L57.4939 385.736L83.7232 333.29L135.879 307.143L162.108 254.696L214.415 228.397L240.493 176.102L292.8 149.803L303.716 127.76L306.9 129.432L295.377 152.539L243.222 178.686L216.993 231.133L164.685 257.28L138.608 309.727L86.3007 336.026L60.223 388.321L37.1775 399.874Z" fill="#B69D6D"/>
<path d="M37.1775 377.831L35.5098 374.639L42.7873 370.991L69.0166 318.544L121.172 292.397L147.401 239.95L199.708 213.651L225.786 161.356L278.093 135.057L281.732 127.76L284.916 129.432L280.671 137.793L228.515 163.941L202.286 216.387L149.979 242.534L123.901 294.981L71.5941 321.28L45.5163 373.575L37.1775 377.831Z" fill="#B69D6D"/>
<path d="M37.9356 344.539L34.7517 342.867L54.31 303.798L106.465 277.651L132.695 225.204L185.002 198.905L211.08 146.61L250.045 127L251.712 130.192L213.809 149.195L187.579 201.641L135.272 227.789L109.195 280.235L56.8875 306.534L37.9356 344.539Z" fill="#B69D6D"/>
<path d="M37.9356 300.302L34.7517 298.629L39.6034 289.052L91.7588 262.905L117.988 210.458L170.295 184.159L196.373 131.865L205.925 127L207.592 130.192L199.102 134.449L172.873 186.895L120.566 213.043L94.4879 265.489L42.1808 291.789L37.9356 300.302Z" fill="#B69D6D"/>
<path d="M37.1775 272.178L35.5098 268.986L77.0522 248.159L103.282 195.713L155.589 169.413L176.36 127.76L179.544 129.432L158.166 172.15L105.859 198.297L79.7812 250.744L37.1775 272.178Z" fill="#B69D6D"/>
<path d="M37.1775 249.983L35.5098 246.791L62.3456 233.413L88.5749 180.967L140.882 154.667L154.224 127.76L157.408 129.432L143.459 157.404L91.1523 183.551L65.0746 235.998L37.1775 249.983Z" fill="#B69D6D"/>
<path d="M37.1775 227.941L35.5098 224.748L47.6389 218.667L73.8683 166.221L126.175 139.922L132.24 127.76L135.424 129.432L128.753 142.658L76.4457 168.805L50.368 221.252L37.1775 227.941Z" fill="#B69D6D"/>
<path d="M37.9356 201.945L34.7517 200.425L59.1617 151.475L107.982 127L109.498 130.192L61.7391 154.059L37.9356 201.945Z" fill="#B69D6D"/>
<path d="M37.9356 157.708L34.7517 156.188L44.455 136.729L63.8617 127L65.3779 130.192L47.0325 139.314L37.9356 157.708Z" fill="#B69D6D"/>
</g>
</g>
<defs>
<clipPath id="clip0">
<rect x="34.7517" y="127" width="446.809" height="448" fill="white"/>
</clipPath>
</defs>
</svg>

<svg width="280" height="376" viewBox="0 0 280 376" fill="none" xmlns="http://www.w3.org/2000/svg"><g clip-path="url(#clip0)" fill="#B69D6D" opacity=".1"><path d="M276.274 574.24l-3.184-1.52 16.374-32.988 52.308-26.148 26.229-52.446 52.307-26.299 26.078-52.447 32.9-16.418 1.516 3.192-31.839 15.962-26.078 52.447-52.307 26.147-26.077 52.447-52.307 26.147-15.92 31.924z"/><path d="M254.29 574.24l-3.184-1.52 23.652-47.734 52.307-26.147 26.229-52.447 52.307-26.299 26.078-52.447 47.607-23.715 1.516 3.193-46.545 23.259-26.078 52.446-52.307 26.147-26.078 52.447-52.307 26.147-23.197 46.67z"/><path d="M217.296 575l-1.668-3.193 18.345-9.121 26.078-52.446 52.307-26.148 26.229-52.446 52.308-26.299 26.077-52.447 52.307-26.147 9.097-18.394 3.184 1.672-9.703 19.306-52.156 26.299-26.229 52.447-52.307 26.147-26.078 52.447-52.307 26.299-26.229 52.295L217.296 575z"/><path d="M173.176 575l-1.668-3.192 47.759-23.867 26.078-52.447 52.307-26.147 26.229-52.447 52.307-26.299 26.078-52.446 52.307-26.148 23.803-47.886 3.184 1.673-24.41 48.798-52.155 26.299-26.229 52.446-52.307 26.148-26.078 52.446-52.307 26.3-26.23 52.294L173.176 575z"/><path d="M148.918 574.24l-3.184-1.52 6.519-13.378 52.307-26.147 26.078-52.447 52.307-26.147 26.23-52.446 52.307-26.3 26.077-52.446 52.307-26.148 26.078-52.446 13.342-6.537 1.516 3.192-12.129 6.081-26.229 52.295-52.156 26.299-26.229 52.447-52.307 26.147-26.078 52.446-52.307 26.3-26.229 52.294-52.156 26.3-6.064 12.161z"/><path d="M126.782 574.24l-3.184-1.52 13.948-28.124 52.308-26.147 26.077-52.447 52.307-26.147 26.23-52.446 52.307-26.3 26.077-52.446 52.308-26.148 26.077-52.446 28.049-13.986 1.516 3.193-26.836 13.529-26.229 52.295-52.155 26.299-26.23 52.447-52.307 26.147-26.078 52.446-52.307 26.3-26.229 52.294-52.155 26.3-13.494 26.907z"/><path d="M104.798 574.24l-3.184-1.52 21.226-42.87 52.307-26.147 26.078-52.446 52.307-26.148 26.229-52.446 52.307-26.3 26.078-52.446 52.307-26.147 26.078-52.447 42.755-21.283 1.516 3.193-41.542 20.826-26.23 52.447-52.155 26.147-26.229 52.447-52.307 26.147-26.078 52.447-52.307 26.299-26.078 52.294-52.307 26.3-20.771 41.653z"/><path d="M75.081 575l-1.516-3.192 8.49-4.257 26.078-52.446 52.307-26.148 26.078-52.446 52.307-26.147 26.23-52.447 52.307-26.299 26.077-52.447 52.307-26.147 26.078-52.447 52.307-26.147 4.245-8.513 3.184 1.52-4.7 9.577-52.307 26.3-26.229 52.446-52.156 26.147-26.229 52.447-52.307 26.147-26.078 52.447-52.307 26.299-26.078 52.295-52.307 26.299-26.229 52.447L75.081 575z"/><path d="M37.178 571.96l-1.668-3.193 31.839-15.962 26.078-52.446 52.307-26.148 26.077-52.446 52.307-26.147 26.23-52.447 52.307-26.299 26.078-52.447 52.307-26.147 26.077-52.447 52.307-26.147 15.92-31.924 3.184 1.672-16.374 32.836-52.308 26.3-26.229 52.446-52.155 26.148-26.23 52.446-52.307 26.147-26.077 52.447-52.308 26.299-26.077 52.295-52.307 26.299-26.23 52.447-32.748 16.418z"/><path d="M37.178 549.765l-1.668-3.04 17.132-8.666 26.078-52.446 52.307-26.147 26.078-52.447 52.307-26.147 26.229-52.447 52.307-26.299 26.078-52.447 52.307-26.147 26.078-52.446 52.307-26.148 8.642-17.178 3.032 1.672-8.945 18.091-52.307 26.299-26.23 52.446-52.155 26.148-26.229 52.446-52.307 26.148-26.078 52.446-52.307 26.299-26.078 52.295-52.307 26.299-26.23 52.447-18.041 8.969z"/><path d="M37.178 527.722l-1.668-3.192 2.426-1.216 26.077-52.447 52.307-26.147 26.078-52.447 52.307-26.147 26.23-52.447 52.307-26.299 26.077-52.446 52.307-26.148 26.078-52.446 52.307-26.148 1.213-2.432 3.184 1.672-1.668 3.345-52.307 26.299-26.229 52.447-52.156 26.147-26.229 52.446-52.307 26.148-26.078 52.446-52.307 26.3-26.078 52.294-52.307 26.299-26.229 52.447-3.335 1.672z"/><path d="M37.936 486.981l-3.184-1.52 14.555-29.34 52.307-26.147 26.229-52.447 52.156-26.147 26.229-52.446 52.307-26.3 26.078-52.294 52.307-26.3 26.078-52.446L392.259 127l1.516 3.192-28.048 14.138-26.23 52.447-52.155 26.147-26.23 52.447-52.307 26.147-26.077 52.446-52.307 26.3-26.078 52.294-52.307 26.3-14.1 28.123z"/><path d="M37.178 444.112l-1.668-3.193 51.397-25.691 26.229-52.447 52.156-26.147 26.229-52.446 52.307-26.3 26.078-52.294 52.307-26.299 25.623-51.535 3.184 1.672-26.229 52.599-52.156 26.147-26.229 52.447-52.307 26.147-26.078 52.447-52.307 26.299-26.078 52.294-52.458 26.3z"/><path d="M37.178 422.069l-1.668-3.193 36.69-18.394 26.23-52.446 52.155-26.148 26.23-52.446 52.307-26.299 26.077-52.295 52.308-26.299 18.345-36.789 3.184 1.672-18.952 37.853-52.156 26.147-26.229 52.447-52.307 26.147-26.078 52.447-52.307 26.299-26.077 52.294-37.753 19.003z"/><path d="M37.178 399.874l-1.668-3.192 21.984-10.946 26.23-52.446 52.155-26.147 26.229-52.447 52.307-26.299 26.078-52.295 52.307-26.299 10.916-22.043 3.184 1.672-11.523 23.107-52.155 26.147-26.229 52.447-52.308 26.147-26.077 52.447-52.307 26.299-26.078 52.295-23.045 11.553z"/><path d="M37.178 377.831l-1.668-3.192 7.277-3.648 26.23-52.447 52.155-26.147 26.229-52.447 52.307-26.299 26.078-52.295 52.307-26.299 3.639-7.297 3.184 1.672-4.245 8.361-52.156 26.148-26.229 52.446-52.307 26.147-26.078 52.447-52.307 26.299-26.078 52.295-8.338 4.256z"/><path d="M37.936 344.539l-3.184-1.672 19.558-39.069 52.155-26.147 26.23-52.447 52.307-26.299 26.078-52.295L250.045 127l1.667 3.192-37.903 19.003-26.23 52.446-52.307 26.148-26.077 52.446-52.307 26.299-18.952 38.005z"/><path d="M37.936 300.302l-3.184-1.673 4.851-9.577 52.156-26.147 26.229-52.447 52.307-26.299 26.078-52.294 9.552-4.865 1.667 3.192-8.49 4.257-26.229 52.446-52.307 26.148-26.078 52.446-52.307 26.3-4.245 8.513z"/><path d="M37.178 272.178l-1.668-3.192 41.542-20.827 26.23-52.446 52.307-26.3 20.771-41.653 3.184 1.672-21.378 42.718-52.307 26.147-26.078 52.447-42.604 21.434z"/><path d="M37.178 249.983l-1.668-3.192 26.836-13.378 26.229-52.446 52.307-26.3 13.342-26.907 3.184 1.672-13.949 27.972-52.307 26.147-26.077 52.447-27.898 13.985z"/><path d="M37.178 227.941l-1.668-3.193 12.129-6.081 26.23-52.446 52.306-26.299 6.065-12.162 3.184 1.672-6.671 13.226-52.307 26.147-26.078 52.447-13.19 6.689zm.758-25.996l-3.184-1.52 24.41-48.95L107.982 127l1.516 3.192-47.759 23.867-23.803 47.886zm0-44.237l-3.184-1.52 9.703-19.459L63.862 127l1.516 3.192-18.346 9.122-9.096 18.394z"/></g><defs><clipPath id="clip0"><path fill="#fff" d="M34.752 127h446.809v448H34.752z"/></clipPath></defs></svg>
